X:50
T: Campdown Races
S: "Johnny O'Leary of Sliabh Luachra" (#346)
Z: B.Black
L: 1/8
Q: 275
M: 2/4
R: polka
K: D
c/e/|fe ce|fe cA|cB c/B/A/B/|ce Bc/e/|
f/g/f/e/ ce|fe ce B/c/B/A/ Bc|1 A2 A :|2\
A2 A2||
e>d ef/g/|a2 ag/a/|fd a>f|e2-e c/e/|
fe cA|fe ce|B/c/B/A/ Bc|A2 A2 :|
